X: 97
T: Connaughtman's Rambles [The]
M: 6/8
L: 1/8
R: Jig
K: D
A|FAA dAA|BAB dAG|FAA dfe|dBB B2A|
FAA dAA|BAB def|gfe f2e|dBB B2 :|
g|fbb faa|fef d2e|fbb faa|fed ede|
fbb faa|fef def|gfe f2e|dBB B2 :|
